X: 1406
T: The Pigeon On The Gate
M:C|
L:1/8
N:"collected by F. O'Neill"
B:O'Neill's 1406
Z:"Transcribed by Bob Safranek, rjs@gsp.org"
K:Amix
gf | e>A (3AAA egfg | e>A (3AAA e2 dB |1 G2 (BG) dGBG | GBdf g2 (fg) :|2\
GBde g2 ga | bagb a2 ||
(ag) | eaag abag | eaab c'bag | eggf gage | dega bgag |
       eaag abag | eaab c'bag | edef gage | dBGB A2 |]


